actions/16/layer-top.svg

<svg xmlns="http://www.w3.org/2000/svg" style="fill-rule:evenodd;clip-rule:evenodd;stroke-linejoin:round;stroke-miterlimit:2" width="100%" height="100%" viewBox="0 0 16 16" xml:space="preserve">
 <defs>
  <style id="current-color-scheme" type="text/css">
   .ColorScheme-Text { color:#dfdfdf; } .ColorScheme-Highlight { color:#4285f4; } .ColorScheme-NeutralText { color:#ff9800; } .ColorScheme-PositiveText { color:#4caf50; } .ColorScheme-NegativeText { color:#f44336; }
  </style>
 </defs>
 <path style="fill:currentColor;" class="ColorScheme-Text" d="M11.498,4.002l-0.187,0.219l-2.313,2.5l0.656,0.687l1.344,-1.437l0,8.029l1.002,0l-0,-8.029l1.344,1.437l0.656,-0.687l-2.313,-2.5l-0.189,-0.219Zm-6.498,2.998l-3,3l4,0l3,-3l-4,0Zm0,4l-3,3l4,0l3,-3l-4,0Z"/>
 <path style="fill:currentColor;fill-opacity:0.3;" class="ColorScheme-Text" d="M5,3l-3,3l6,0l3,-3l-6,0Z"/>
</svg>

<svg xmlns="http://www.w3.org/2000/svg" style="fill-rule:evenodd;clip-rule:evenodd;stroke-linejoin:round;stroke-miterlimit:2" viewBox="0 0 16 16" xml:space="preserve">
    <defs>
        <style id="current-color-scheme" type="text/css">
            .ColorScheme-Text{color:#dfdfdf}
        </style>
    </defs>
    <path style="fill:currentColor" class="ColorScheme-Text" d="m11.498 4.002-.187.219-2.313 2.5.656.687 1.344-1.437V14H12V5.971l1.344 1.437.656-.687-2.313-2.5-.189-.219ZM5 7l-3 3h4l3-3H5Zm0 4-3 3h4l3-3H5Z"/>
    <path style="fill:currentColor;fill-opacity:.3" class="ColorScheme-Text" d="M5 3 2 6h6l3-3H5Z"/>
</svg>
